#Title        Demistify Feast
#Composer     ZUN
#Arranger     Jonath
#Option       /v/c
#DT2Flag      on
#Filename     .M2
#Tempo        80

@011 3 7 31 4 1 2 3 32 0  6 7 0 0 31  0 0  2 15 25 2 2 3 0 0 31 15 0  2 5  0 2  0 7 0 0 31  0 0  8  2 0 0 2 3 0 0   ; GUITAR
@012 4 7 21 4 2 4 2 40 0 12 3 0 0 24 12 4  6  2  0 0 4 7 0 1 21  4 2  4 2 35 0  6 7 0 0 24 12 4  6  2 0 0 2 3 0 1   ; PIANO
@023 4 7 31 0 0 2 0 30 3  4 3 0 0 31  2 0  7  3  0 0 4 3 0 0 31  0 0  2 0 31 3  2 7 0 0 31  2 0  7  3 0 0 4 7 0 0   ; TRUMPET
@030 4 6 30 1 0 1 1 24 3  4 3 0 0 13  2 0  6  0  0 1 8 3 0 0 30  1 0  1 1 24 3  4 7 0 0 13  2 0  6  0 0 1 8 7 0 0   ; LEAD
@068 2 7 14 6 2 6 1 25 2  2 4 0 0 17  8 2  9  1 31 1 6 5 0 0 20  7 1  6 2 42 0  2 3 0 0 17  4 1  8  2 0 0 4 2 0 0   ; VIOLIN
@074 0 4 31 7 7 9 2 28 3  6 6 0 0 31  6 6  9  1 58 3 5 6 0 0 31  9 6  9 1 22 2  0 6 0 0 31  6 8  9 15 0 2 1 6 0 0   ; BASS
@099 5 7 31 0 0 0 0 29 0  1 0 0 0 31 14 3 15  3  0 0 1 0 0 0 31 14 3 15 3  0 0  1 0 0 0 31 14 3 15  3 0 0 1 0 0 0   ; SYNTH 
@101 4 7 28 0 8 0 3 32 2 12 3 0 0 26 10 7  6  2  0 1 4 3 0 0 28  0 8  0 3 30 2 12 7 0 0 26 10 7  6  2 0 1 4 7 0 0   ; PIANO
@181 4 7 31 0 0 0 0 27 0  8 7 0 0 31 16 0  8  2  0 0 4 7 0 0 31  0 0  0 0 30 0  8 3 0 0 31 16 0  8  2 0 0 4 3 0 0   ; B PIANO
@250 5 7 31 2 6 8 6 29 0  4 0 0 0 31  2 6  8  6  0 0 4 4 0 0 31  0 6  8 6  0 0  4 4 0 0 31  6 6  8  6 0 0 2 4 0 0   ; LEAD 2
@251 5 7 31 0 0 0 0 28 0  8 0 0 0 31 14 3 15  3  0 0 2 0 0 0 31 14 3 15 3  0 0  6 0 0 0 31 14 3 15  3 0 0 6 0 0 0   ; ORGAN

; LEAD
!A1 c8 d8 d+8 g8 d+8 d8 c8 d8
!A2 d+8 g8 d+8 d8 d+8 f8 f+8 a+8
!A3 f+8 f8 d+8 f8 f+8 a+8 f+8 f8
!A4 d+8 g8 d+8 d8 g8 a8 a+8 > d8 <
!A5 a+8 a8 g8 a8 a+8 > d8 < a+8 a8
!A6 d+8 g8 d+8 d8 c8 d8 d+8 g8 d+8
!A7 c16 d16 d+16 g16 > c16 < f16 a+16 d+16 d16 g+16 g16 d+16 < g16 g+16

!E1 [g8 r2+8]3

;BASS
!C1 [c8]12
!C2 [d+8]12
!C3 [g8]12

A t81
AB @101
CD @181
E  @030
A o3
B o4
C o3
D o2
E o4

A !A1 !A2 !A3 !A1
A !A4 !A5
A !A1 !A2 !A3 !A1
A !A4 !A5
A > !A1 !A6 > !A7

B [r1]6
B !A1 !A2 !A3 !A1
B !A4 !A5
B > !A1 !A6 r2..

CD !C1 !C2 !C1 !C3
CD !C1 !C2 !C1 !C3
CD [!C1]2

E [r1]12
E !E1 r2.

I [r1]15