#Title        G Free
#Composer     ZUN
#Arranger     Jonath
#Option       /v/c
#DT2Flag      on
#Filename     .M2
#Tempo        80

@011 3 7 31 4 1 2 3 32 0  6 7 0 0 31  0 0  2 15 25 2 2 3 0 0 31 15 0  2 5  0 2  0 7 0 0 31  0 0  8  2 0 0 2 3 0 0   ; GUITAR
@012 4 7 21 4 2 4 2 40 0 12 3 0 0 24 12 4  6  2  0 0 4 7 0 1 21  4 2  4 2 35 0  6 7 0 0 24 12 4  6  2 0 0 2 3 0 1   ; PIANO
@023 4 7 31 0 0 2 0 30 3  4 3 0 0 31  2 0  7  3  0 0 4 3 0 0 31  0 0  2 0 31 3  2 7 0 0 31  2 0  7  3 0 0 4 7 0 0   ; TRUMPET
@030 4 6 30 1 0 1 1 24 3  4 3 0 0 13  2 0  6  0  0 1 8 3 0 0 30  1 0  1 1 24 3  4 7 0 0 13  2 0  6  0 0 1 8 7 0 0   ; LEAD
@068 2 7 14 6 2 6 1 25 2  2 4 0 0 17  8 2  9  1 31 1 6 5 0 0 20  7 1  6 2 42 0  2 3 0 0 17  4 1  8  2 0 0 4 2 0 0   ; VIOLIN
@074 0 4 31 7 7 9 2 28 3  6 6 0 0 31  6 6  9  1 58 3 5 6 0 0 31  9 6  9 1 22 2  0 6 0 0 31  6 8  9 15 0 2 1 6 0 0   ; BASS
@099 5 7 31 0 0 0 0 29 0  1 0 0 0 31 14 3 15  3  0 0 1 0 0 0 31 14 3 15 3  0 0  1 0 0 0 31 14 3 15  3 0 0 1 0 0 0   ; SYNTH 
@101 4 7 28 0 8 0 3 32 2 12 3 0 0 26 10 7  6  2  0 1 4 3 0 0 28  0 8  0 3 30 2 12 7 0 0 26 10 7  6  2 0 1 4 7 0 0   ; PIANO
@181 4 7 31 0 0 0 0 27 0  8 7 0 0 31 16 0  8  2  0 0 4 7 0 0 31  0 0  0 0 30 0  8 3 0 0 31 16 0  8  2 0 0 4 3 0 0   ; B PIANO
@250 5 7 31 2 6 8 6 29 0  4 0 0 0 31  2 6  8  6  0 0 4 4 0 0 31  0 6  8 6  0 0  4 4 0 0 31  6 6  8  6 0 0 2 4 0 0   ; LEAD 2
@251 5 7 31 0 0 0 0 28 0  8 0 0 0 31 14 3 15  3  0 0 2 0 0 0 31 14 3 15 3  0 0  6 0 0 0 31 14 3 15  3 0 0 6 0 0 0   ; ORGAN

; LEAD
!A1 c2+8
!A2 c8 f8 g8
!A3 g+4 g4 d+8. < a+8. > c2+8. r16
!A4 g+4 g4 a+8. g8. d+8
!A5 c2+8

!B1 g+2+8
!B2 g+8 > c8 c8
!B3 f4 d+4 < a+8. g8. g+2+8. r16
!B4 f4 d+4 g8. d+8. < a+8
!B5 g+2+8

; BASS
!C1 c1
!C2 < g+2 a+4. >
!C3 < g+8 r4.

!D1 f1
!D2 c+2 d+4.
!D3 c+8 r4.

A t80
AB @101
CD @074
A o4
B o3
C o4
D o3

A !A1
A [!A2 !A3 !A2 !A4 !A5]2
B !B1
B [!B2 !B3 !B2 !B4 !B5]2

;C [!C1 !C2]3 !C1 !C3
;D [!D1 !D2]3 !D1 !D3

I [r1]9