#Title        Greenwich in the Sky
#Composer     ZUN
#Arranger     Jonath
#Option       /v/c
#DT2Flag      on
#Filename     .M2
#Tempo        120

@011 3 7 31 4 1 2 3 32 0  6 7 0 0 31  0 0  2 15 25 2 2 3 0 0 31 15 0  2 5  0 2  0 7 0 0 31  0 0  8  2 0 0 2 3 0 0   ; GUITAR
@012 4 7 21 4 2 4 2 40 0 12 3 0 0 24 12 4  6  2  0 0 4 7 0 1 21  4 2  4 2 35 0  6 7 0 0 24 12 4  6  2 0 0 2 3 0 1   ; PIANO
@023 4 7 31 0 0 2 0 30 3  4 3 0 0 31  2 0  7  3  0 0 4 3 0 0 31  0 0  2 0 31 3  2 7 0 0 31  2 0  7  3 0 0 4 7 0 0   ; TRUMPET
@030 4 6 30 1 0 1 1 24 3  4 3 0 0 13  2 0  6  0  0 1 8 3 0 0 30  1 0  1 1 24 3  4 7 0 0 13  2 0  6  0 0 1 8 7 0 0   ; LEAD
@068 2 7 14 6 2 6 1 25 2  2 4 0 0 17  8 2  9  1 31 1 6 5 0 0 20  7 1  6 2 42 0  2 3 0 0 17  4 1  8  2 0 0 4 2 0 0   ; VIOLIN
@074 0 4 31 7 7 9 2 28 3  6 6 0 0 31  6 6  9  1 58 3 5 6 0 0 31  9 6  9 1 22 2  0 6 0 0 31  6 8  9 15 0 2 1 6 0 0   ; BASS
@099 5 7 31 0 0 0 0 29 0  1 0 0 0 31 14 3 15  3  0 0 1 0 0 0 31 14 3 15 3  0 0  1 0 0 0 31 14 3 15  3 0 0 1 0 0 0   ; SYNTH 
@101 4 7 28 0 8 0 3 32 2 12 3 0 0 26 10 7  6  2  0 1 4 3 0 0 28  0 8  0 3 30 2 12 7 0 0 26 10 7  6  2 0 1 4 7 0 0   ; PIANO
@181 4 7 31 0 0 0 0 27 0  8 7 0 0 31 16 0  8  2  0 0 4 7 0 0 31  0 0  0 0 30 0  8 3 0 0 31 16 0  8  2 0 0 4 3 0 0   ; B PIANO
@250 5 7 31 2 6 8 6 29 0  4 0 0 0 31  2 6  8  6  0 0 4 4 0 0 31  0 6  8 6  0 0  4 4 0 0 31  6 6  8  6 0 0 2 4 0 0   ; LEAD 2
@251 5 7 31 0 0 0 0 28 0  8 0 0 0 31 14 3 15  3  0 0 2 0 0 0 31 14 3 15 3  0 0  6 0 0 0 31 14 3 15  3 0 0 6 0 0 0   ; ORGAN

A t120
ABCDEFGH l16

; INTRODUCTION

AB @101
CD @068
E @068
A o3
B o4
C o2
D o3
E o3

!A1  a+4+16 r16 a+4+16 r16 a+4 
!A2  a+8. a+8. a+8 a8. g8. f8
!A3  a+8 d8 < a+8 > a+8 g8 d8 a+4
!A4  a+8. a+8. a+8 a+2
!A5  a+8 d8 < a+8 > a+8 d8 < a+8 > a+4
!A6  a+8. a+8. a+8 a+8 > d8 c8 < a+8
!A7  a+8 g8 d8 a+8 g8 d8 a+4
!A8  a+8. a+8. a+8 a+2

!B1  d4+16 r d4+16 r d4 
!B2  c+8. c+8. c+8 c8. < a+8. a8 >
!B3  d8 < g8 d8 > d8 < a+8 g8 > d4
!B4  c+8. d8. g8 d2
!B5  d8 < g8 d8 > d8 < g8 d8 > d4
!B6  c+8. d8. f8 g8 r4.
!B7  d8 < a+8 g8 > d8 < a+8 g8 > d4
!B8  c+8. d8. f8 g2

!C1 g2 g8 r4.
!C2 a+8 r a+8. a+8 > c8 r c8. c8 <
!C3 [g8]8
!C4 a+4 a+8 a+8 > c4 c8 c8

!D1 d2 d8 r4.
!D2 d+8 r d+8. d+8 f8 r f8. f8
!D3 [d8]8
!D4 d+4 d+8 d+8 f4 f8 f8

R0 @513c16 r2+8+16 @32c16 r16 @1c16 r16
R1 @1025c16 r4+16 @1c16 r16 @32c16 r4..
R2 @1025c16 r8. @2c16 r8. [@1c16 r16]2 @130c16 @128c16 @129c16 @128c16
R3 @129c16 r4.. @257c16 r16 @1c16 r16 @32c16 r8.
R4 @1281c16 r8. @128c16 r16 @1c16 @2c16 @257c16 r8. @128c16 r8.
R5 @1281c16 r8. @130c16 r8. @259c16 r16 @3c16 r16 @194c16 [@2c16]3
R6 @129c16 r8. @320c16 r8. [@129c16 r16]2 @320c16 r8.
R7 @1153c16 r8. @320c16 r8. [@129c16 r16]2 @320c16 r8.
R8 @1153c16 r16 [@64c16 r16]3 [@65c16 @64c16]2 [@64c16 r16]2

;A !A1 !A2 !A3 !A4    ; [1-4]
;A !A5 !A2 !A3 !A6    ; [5-8]
;A !A7 !A2 !A7 !A4    ; [9-12]
;A !A7 !A2 !A7 !A8    ; [13-16]

;B !B1 !B2 !B3 !B4    ; [1-4]
;B !B5 !B2 !B3 !B6    ; [5-8]
;B !B7 !B2 !B7 !B4    ; [9-12]
;B !B7 !B2 !B7 !B8    ; [13-16]

;C [!C1 !C2]4         ; [1-8]
;C [!C3 !C4]4         ; [9-16]

;D [!D1 !D2]4         ; [1-8]
;D [!D3 !D4]4         ; [9-16]

;E [r1]16

;GH [r1]16

;K [R0 : R1]2 R2      ; [1-4]
;K [R3 : R4]2 R5      ; [5-8]
;K [R6 : R7]4 R8      ; [9-16]

;I [r1]16

; MELODY

AB @023 o4 V108
C @074 o4 V112
GH @7 o4 V12

!A9  d+2 a+2
!A10 a4. a+4. > c4 < 
!A11 a4. g4. f8. r
!A12 d2 d4 f4
!A13 g2 f4 g4
!A14 a4 a+8 > c4 d8 c4 <
!A15 f+4 r2.
!A16 a+4 f+8 a8 d8 g8 f+8 c+8
!A17 a+8 g8 d8 d8 g8 d8 a+4
!A18 a+8. a+8. a+8 a+8 r4.
!A19 d+2. a4
!A20 f4 f8 g8 f8 d8 c4
!A21 d1.. r4

!B9  g2 > d2
!B10 c4. d4. f8. r
!B11 c4. < a+4. a8. r
!B12 g2 g4 a4
!B13 a+2 a4 a+4 >
!B14 c4 d8 d+4 f8 d+4
!B15 d4 r2.
!B16 d4 c8 d8 < a+8 > c8 < a8 a+8 >
!B17 d8 < a+8 g8 > d8 < a+8 g8 > d4
!B18 d8 < a+8 g8 > d8 < a+8 g8 > f4
!B19 g2 f+ f d+ d c+ c < a+ a
!B20 g2. > c4 <
!B21 a4 a8 a+8 a8 g8 f4
!B22 g1.. f+ f d+ c+

!C5  [a+8]2 > d+8 < [a+8]3 > d+8 < a+8
!C6  > [c8]2 f8 [c8]3 f8 c8 <
!C7  [a8]2 > f8 < [a8]3 > f8 < a8
!C8  [g8]2 > c8 < [g8]3 > c8 < g8
!C9  [f8]2 > d+8 < [f8]3 > d+8 < f8
!C10 [a8]2 > c8 < [a8]3 > c8 < a8
!C11 [a8]2 > d8 < [a8]3 > d8 < a8
!C12 [d8]8 
!C13 [d+8]4 [f8]4
!C14 d+1
!C15 f1
!C16 g1+1
!C17 [g8]2 > d8 < [g8]3 > d8 < g8

!E1 d+1
!E2 f1
!E3 b1+1

;Rhythm Channel K => SSG Channel I (= SSG#2) + PCM Rhythm Module
;SSG Rhythm Presets
;@#    RHY## L/R Percussion    Translation
;@1    RHY#0 LR  Bass Drum        o1 b
;                                 o2 c
;@2    RHY#1 LR  Snare Drum 1     o2 d
;@4    RHY#4  R  Low Tom          o2 f
;                                 o2 a
;@8    RHY#4 LR  Middle Tom       o2 b
;                                 o3 c
;@16   RHY#4 L   High Tom         o2 g
;                                 o3 d
;@32   RHY#5 LR  Rim Shot         o1 g
;                                 o2 c+
;@64   RHY#1 LR  Snare Drum 2     o2 e
;@128  RHY#3 L   Hi-Hat Close     o2 f+    \h
;               (Hi-Hat Pedal)    o2 g+    \h
;@256  RHY#2 L   Hi-Hat Open      o2 a+    \h
;@512  RHY#2 LR  Crash Cymbal 1   o3 c+
;@1024 RHY#2  R  Ride Cymbal      o3 d+
;                                 o3 b

; 225
R9  @1249c16 r16 @96c16 r16 @352c16 r16 @96c16 r16 [@225c16 r16]2 @352c16 r16 @64c16 r16
R10 @1155c16 r16 @2c16 r16 @258c16 r16 @2c16 r16 [@131c16 @2c16]2 @258c16 r16 @2c16 r16
R11 [@258c16 r8. @129c16 r16]2 @258c16 r16 @2c16 r16
R12 @1285c16 r8. @129c16 r8. @258c16 r16 @128c16 r16 @131c16 [@130c16]3
R13 @258c16 r8. @129c16 @1c16 @130c16 r8. @129c16 r16 @258c16 [@2c16]3
R14 @1285c16 r8. @129c16 r8. @258c16 @2c16 @130c16 @2c16 @259c16 r16 @129c16 @128c16
R15 @128c16 [@2c16]3 @131c16 [@2c16]3 @258c16 @2c16 @130c16 @2c16 @259c16 r16 @131c16 @128c16
R16 @512c16 r2+4+8+16
R17 @1536c16 r8. [@1c16 r16]2 @2c16 r8. @128c16 r8.
R18 @577c16 r16 @65c16 r16 @66c16 r16 @65c16 r16 [@65c16 @64c16]2 @67c16 r16 @65c16 r16
R19 @1089c16 r16 @65c16 r16 @66c16 r16 [@65c16 r16]3 @66c16 r16 @65c16 r16

;AG !A9  !A10 !A11 !A12     ; [17-20]
;AG !A13 !A14 !A15          ; [21-23]
;AG !A16 !A17 !A2  !A17     ; [24-27]
;AG !A8  !A17 !A2  !A17     ; [28-31]
;AG !A8  !A17 !A2  !A17     ; [32-35]
;AG !A8  !A17 !A2  !A17     ; [36-39]
;AG !A18 !A19 !A20 !A21     ; [40-44]

;BH !B9  !B10 !B11 !B12     ; [17-20]
;BH !B13 !B14 !B15          ; [21-23]
;BH !B16 !B17 !B2  !B17     ; [24-27]
;BH !B4  !B17 !B2  !B17     ; [28-31]
;BH !B8  !B17 !B2  !B17     ; [32-35]
;BH !B4  !B17 !B2  !B18     ; [36-39]
;BH !B19 !B20 !B21 !B22     ; [40-44]

;C !C5 !C6 !C7  !C5        ; [17-20]
;C !C8 !C9 !C10 !C11       ; [21-24]
;C > [!C12 !C13]8          ; [25-40]
;C < !C14 !C15 !C16        ; [41-44]

;D [r1]27                  ; [17-43]
;D !C17                    ; [44]

;E [r1]24
;E !E1 !E2 !E3

; Drum work may need simplifications
;K [R6 : R7]4 R9               ; [17-24]
;K [R6 : R7]4 R10              ; [25-32]
;K [R11 R12 R13 : R14]2 R15    ; [33-40]
;K R16 R17 R18 R19

; MAYBE USE E and F with another FM instrument o5
; OR USE G and H

;I [r1]28

; CHORUS

;AB @250 o3
;C @074 o4 V112
;D @068

!A22 [d+8. r16]3 a+2
!A23 a8 a+8 a8 g8 f4
!A24 d8. r16 g8. r16 a+8. r16 > d2
!A25 c+8 d8 < a+8 a4.
!A26 > d4. d8 c8 < a+8 > d8 c8 <
!A27 a+8 > d4 r8 f4 r4 <
!A28 > g2 r4

!B23 g8. r16 a8. r16 a+8. r16 > c+2
!B24 c8 c+8 c8 < a+8 a4
!B25 g8. r16 a+8. r16 > d8. r16 g2
!B26 f+8 g8 d8 c4. <
!B27 > g4. g8 d8 c8 g8 d8
!B28 c8 g4 r8 a4 < a+8 a8
!B29 > a2 a+8 a8

!C18 [d+8]2 a+8 [d+8]3 a+8 d+8 

!E4 c+1+1
!E5 d1+1
!E6 g1+1

;A [!A22 !A23 : !A24 !A25]2 !A26 !A27    ; [47-54]
;A [!A22 !A23 !A24 : !A25]2 !A28         ; [55-62]
;A [!A22 !A23 : !A24 !A25]2 !A26 !A27    ; [63-70]
;A [!A22 !A23 !A24 : !A25]2 !A28         ; [71-77]

;B [!B23 !B24 : !B25 !B26]2 !B27 !B28    ; [47-54]
;B [!B23 !B24 !B25 : !B26]2 !B29         ; [55-62]
;B [!B23 !B24 : !B25 !B26]2 !B27 !B28    ; [63-70]
;B [!B23 !B24 !B25 : !B26]2 !B29         ; [71-77]

;C [[!C18]2 [!C17]2]8                    ; [47-77]

;E o5
;E [[!E4 : !E5]2 !E6]4                   ; [47-77]

;I [r1]32

; INTRODUCTION 2

;A @101 o3
;A !A1 !A2 !A3 !A4    ; [78-81]
;A !A5 !A2 !A3 !A6    ; [82-85]
;A !A7 !A2 !A7 !A4    ; [86-89]
;A !A7 !A2 !A7 !A8    ; [90-93]

;B @101 o4
;B !B1 !B2 !B3 !B4    ; [78-81]
;B !B5 !B2 !B3 !B6    ; [82-85]
;B !B7 !B2 !B7 !B4    ; [86-89]
;B !B7 !B2 !B7 !B8    ; [90-93]

;C [r1]16

;D @074 o4 ; (o3 in transcription)
;D [!D1 !D2]4        ; [78-85]
;D [!D3 !D4]4        ; [86-93]

;EFG [r1]16

;K [R0 : R1]2 R2      ; [78-81]
;K [R3 : R4]2 R5      ; [82-85]
;K [R6 : R7]4 R8      ; [86-93]

;I [r1]16

; MELODY 2

AG !A9  !A10 !A11 !A12     ; [17-20]
AG !A13 !A14 !A15          ; [21-23]
; Remove SSG?
AG !A16 !A17 !A2  !A17     ; [24-27]
AG !A8  !A17 !A2  !A17     ; [28-31]
AG !A8  !A17 !A2  !A17     ; [32-35]
AG !A8  !A17 !A2  !A17     ; [36-39]
AG !A18 !A19 !A20 !A21     ; [40-44]

BH !B9  !B10 !B11 !B12     ; [17-20]
BH !B13 !B14 !B15          ; [21-23]
; Remove SSG?
BH !B16 !B17 !B2  !B17     ; [24-27]
BH !B4  !B17 !B2  !B17     ; [28-31]
BH !B8  !B17 !B2  !B17     ; [32-35]
BH !B4  !B17 !B2  !B18     ; [36-39]
BH !B19 !B20 !B21 !B22     ; [40-44]

;218 mesures!