A o5 
A @000 e 
A @001 e 
A @001 e 
A @002 e 
A @002 e 
A @003 e 
A @003 e 
A @004 e 
A @004 e 
A @005 e 
A @006 e 
A @006 e 
A @007 e 
A @007 e 
A @008 e 
A @009 e 
A @011 e 
A @012 e 
A @014 e 
A @016 e 
A @017 e 
A @022 e 
A @023 e 
A @023 e 
A @027 e 
A @029 e 
A @030 e 
A @032 e 
A @036 e 
A @037 e 
A @039 e 
A @042 e 
A @043 e 
A @043 e 
A @043 e 
A @043 e 
A @047 e 
A @048 e 
A @049 e 
A @050 e 
A @051 e 
A @054 e 
A @056 e 
A @059 e 
A @060 e 
A @062 e 
A @063 e 
A @065 e 
A @067 e 
A @068 e 
A @069 e 
A @071 e 
A @072 e 
A @074 e 
A @075 e 
A @076 e 
A @077 e 
A @079 e 
A @079 e 
A @080 e 
A @091 e 
A @094 e 
A @096 e 
A @097 e 
A @098 e 
A @099 e 
A @099 e 
A @099 e 
A @099 e 
A @100 e 
A @101 e 
A @101 e 
A @121 e 
A @122 e 
A @123 e 
A @123 e 
A @124 e 
A @150 e 
A @160 e 
A @164 e 
A @166 e 
A @169 e 
A @181 e 
A @181 e 
A @182 e 
A @185 e 
A @192 e 
A @198 e 
A @199 e 
A @200 e 
A @202 e 
A @210 e 
A @220 e 
A @222 e 
A @223 e 
A @223 e 
A @223 e 
A @229 e 
A @230 e 
A @234 e 
A @235 e 
A @236 e 
A @237 e 
A @241 e 
A @242 e 
A @243 e 
A @243 e 
A @250 e 
A @250 e 
A @250 e 
A @250 e 
A @250 e 
A @250 e 
A @251 e 
A @251 e 
A @252 e 


;;; INSTRUMENTS

@000 6 7
 0  0  0  0  0  0  0  0  0  0 
 0  0  0  0  0  0  0  0  0  0
 31 21 12 15 1  0  0  2  0  0 
 31 21 12 15 1  0  0  2  0  0 
@001 2 6
 30 14 4  4  2  30 2  0  4  0 
 24 10 4  4  2  50 3  2  3  0 
 28 4  4  4  2  25 3  0  4  0  
 28 7  4  6  2  0  3  0  3  0
@001 3 7
 31  8  8  4  2 20 2  2 2 0 
 31  6  9  4  3 10 2  4 0 0 
 29  6 12  4  4  2 1  2 1 0 
 31  9 10  4  4  2 2  2 4 0 
@002 4 7
 28 12  0  3  4 40 1 10 3 0 
 26  8  4  7  3  0 1  2 3 0 
 28 12  0  3  4 40 1 10 7 0 
 26  8  4  7  3  0 1  2 7 0
@002 4 7
 31  8  7  4  8 20 2  6 5 0 
 26  7  7  4 15 10 1  4 1 0 
 30  6  7  4  2  8 3  2 1 0 
 26  5  7  4  2  3 1  4 3 0 
@003 4 7
 31  0  0  5  0 28 0  4 3 0 
 18  0  0  8  0  0 0  8 3 0 
 31  0  0  5  0 23 0  4 7 0 
 18  0  0  8  0  0 0  8 7 0 
@003 5 3
 31  3  6  4  8 15 2  4 0 0 
 31  2  2  4 15  8 1  4 1 0 
 31  5  6  6  2 10 3  8 1 0 
 31  5  2  6  2  8 1  8 0 0 
@004 0 6
 18 12  1  4  3 35 3 10 4 0 
 31 14  3  5  3 40 0  1 4 0 
 31 11  3  5  3 25 1  0 0 0 
 31 15  4  6  2  0 1  1 3 0 
@004 6 6
 25  3  9  4  8 25 2  3 0 0 
 25  2  9  4 15 10 1  4 1 0 
 20  3  9  6  2 15 3  4 2 0 
 20  2  9  6  2 10 1  4 3 0
@005 4 7
 24  1  0  0  2 34 0  2 7 0 
 24  1  0  6  2  0 0  4 7 0 
 18  1  0  0  2 25 0  2 3 0 
 18  1  0  6  2  0 0  8 3 0 
@006 4 7
 22  6  6  4  1 40 2  4 7 0 
 28  4  4  5  2  0 2  4 3 0 
 22  6  6  4  1 40 2 12 7 0 
 28  4  4  5  2  0 2  4 3 0 
@006 4 7
 31  2  5  1  0 36 1  4 0 0 
 31  5  2  1  0 10 1  2 4 0 
 29  2  4  3  0 10 2  2 2 0 
 31  2  3  1  0  7 1  3 0 0 
@007 3 7
 31 23 21  6  5  0 0 15 4 0 
 31 21 14  6  2 38 0  8 4 0 
 31 21 12  6  1 32 0  7 0 0 
 31 15 14  9  1  0 0  2 4 0 
@007 4 7
 31  2  2  4  8 15 2  2 0 0 
 31  2  2  4 15 10 1  2 1 0 
 31  2  2  6  2 10 3  2 1 0 
 31  2  2  6  2  0 1  2 0 0 
@008 5 7
 31  8  8  9  5 20 2  2 0 0 
 31  6  9  4  8 10 2  2 0 0 
 29  6 12  9  4  2 1  2 0 0 
 31  9 10  4  8  2 2  1 4 0 
@009 5 7
 31  0  0  0  0 28 0  8 0 0 
 31 14  3 15  3  0 0  4 0 0 
 31 14  3 15  3  0 0  6 0 0 
 31 14  3 15  3  0 0  2 0 0 
@011 3 7
 31  4  1  2  3 32 0  6 7 0 
 31  0  0  2 15 25 2  2 3 0 
 31 15  0  2  5  0 2  0 7 0 
 31  0  0  6  2  0 0  2 3 0 
@012 4 7
 21  4  2  4  2 40 0 12 3 0 
 24 12  4  6  2  0 0  4 7 0 
 21  4  2  4  2 35 0  6 7 0 
 24 12  4  6  2  0 0  2 3 0 
@014 4 3
 31  0  0  6  0 20 0  8 3 0 
 18  0  0  8  0  0 0  8 3 0 
 31  0  0  6  0 19 0  8 7 0 
 18  0  0  8  0  0 0  8 7 0 
@016 0 6
 28 17 18  7  4 32 0 10 6 0 
 31 14  6  7  2 38 1  0 3 0 
 31 14  6  7  2 28 1  0 6 0 
 31 16  4  7  1  0 1  1 3 0 
@017 1 7
 31 18  8  5  1 40 1  1 7 0
 26 17 15  5  2 30 0  8 7 0 
 31 18  8  5  2 26 1  0 3 0 
 31 18  6  8  1  0 1  1 7 0
@022 1 7
 24 18  8  5 13 36 0 10 3 0
 31 16  4  5 10 30 1  0 3 0 
 31 16  8  5  1 25 1  0 7 0 
 31 18  0  7  1  0 1  1 3 0
@023 4 7
 25  0  0  2  0 30 3  4 3 0 
 23  2  0  7  3  0 0  4 3 0 
 25  0  0  2  0 31 3  2 7 0 
 22  2  0  7  3  0 0  4 7 0 
@023 4 7
 31  0  0  2  0 30 3  4 3 0 
 31  2  0  7  3  0 0  4 3 0 
 31  0  0  2  0 31 3  2 7 0 
 31  2  0  7  3  0 0  4 7 0 
@027 3 6
 24  8  1  8  1 13 0  6 3 0 
 26  8  3  8  3 30 0  2 7 0 
 26  8  3  8  3 28 0  1 7 0 
 26  0  0  9  0  0 0  2 3 0
@029 2 7
 31 18  4  5  8 30 0  8 0 0 
 31 12  4  5  2 50 0  1 3 0 
 31 12  4  5  2 20 0  0 3 0 
 31 16  4  6  1  0 0  1 4 0
@030 4 6
 30  1  0  1  1 24 3  4 3 0 
 13  2  0  6  0  0 1  8 3 0 
 30  1  0  1  1 24 3  4 7 0 
 13  2  0  6  0  0 1  8 7 0
@032 2 4
 31  8  0 15 10 21 0  3 3 0 
 31  8  5 15 10 19 0  5 7 0 
 31 10  5 15 10 24 0  5 3 0 
 31 10  5 15 10  0 0  1 7 0
@036 4 7
 24  8  0  6  1 26 0  8 7 0 
 28  8  0  8  1  0 0  8 7 0 
 24  8  0  6  1 24 0  8 3 0 
 28  8  0  8  1  0 0  8 3 0
@037 4 7 
 24  8  6  4  1 38 2  8 3 0 
 28  8  6  6  2  0 2  8 3 0 
 24  8  6  4  1 45 2 12 7 0 
 28  8  6  6  2  0 2  4 7 0
@039 5 7 
 31 10 14  3 15 32 2  1 0 0 
 31 12 14  8 15  0 0  2 0 0 
 31 12 14  8 15  0 2  2 0 0 
 31 12 14  8 15  0 0  2 0 0
@042 4 7 
 28  0  0  0  0 40 2  8 3 0 
 26 11  7  7  3  0 1  8 3 0 
 28  0  0  0  0 40 2  8 7 0 
 26 11  7  7  3  0 1  8 7 0
@043 5 7 
 31  0  0  0  0 28 0  2 0 0 
 31 14  3 15  3  0 0  8 0 0 
 31 14  3 15  3  0 0  4 0 0 
 31 14  3 15  3  0 0  4 0 0 
@043 5 7 
 31  0  0  0  0 28 0  8 0 0 
 31 14  3 15  3  0 0  2 0 0 
 31 14  3 15  3  0 0  6 0 0 
 31 14  3 15  3  0 0  6 0 0
@043 5 7 
 31  0  0  0  0 29 0  1 0 0 
 31 14  3 15  3  0 0  1 0 0 
 0  31 14  3 15  3 0  0 1 0 
 0  31 14  3 15  3 0  0 1 0 
@043 5 7 
 31  0  0  0  0 29 0  2 0 0 
 31 14  3 15  3  1 0  8 0 0 
 31 14  3 15  3  1 0  4 0 0 
 31 14  3 15  3  1 0  4 0 0
@047 2 7 
 28  0  0  7  0 25 1  1 3 0 
 28 16  8  7  4 28 1 12 3 0 
 28  0  0  7  0 45 1  1 4 0 
 17  0  0  9  0  0 1  2 0 0
@048 1 7 
 31 18 12  6  1 25 1  6 3 0 
 28 18 12  6  1 25 1 12 3 0 
 31 16 14  6  1 35 1  6 4 0 
 31 16  8  8  1  0 1  2 3 0 
@049 4 7 
 20  8  0  2  0 31 0  4 7 0 
 14  8  1  7  1  0 0  8 7 0 
 20  8  0  2  0 31 0  4 3 0 
 14  8  1  7  1  0 0  8 3 0 
@050 0 7 
 20  5  0  9  9 40 0 10 3 0 
 20  8  0  9  0 51 0 10 0 0 
 16  2  0  9  0 29 0  1 1 0 
 14  8  0  9  1  0 0  2 0 0 
@051 2 7 
 31  0  0  4  0 14 1  1 7 0 
 31 16  1  4  1 25 1  1 7 0 
 31 16  1  4  2 14 0  1 3 0 
 31 16  1  7  1  0 2  1 0 0 
@054 4 4 
 31  0  0  0  0 17 0  8 7 0 
 31 16  0  8  2  0 0  4 7 0 
 31  0  0  0  0 20 0  4 3 0 
 31 16  0  8  2  0 0  2 3 0
@056 4 7 
 28 10  4  3  2 40 1 12 3 0 
 26 16  8  7  4  0 1  4 7 0 
 28 10  4  3  2 40 1  9 7 0 
 26 16  8  7  4  0 1  3 3 0 
@059 4 7 
 21 12  4  6  2 40 1 12 3 0 
 24 12  4  8  3  0 1  4 7 0 
 21 12  4  6  2 35 1 12 7 0 
 24 12  4  8  3  0 1  4 3 0 
@060 4 7 
 21  4  2  4  2 40 0 12 3 0 
 24 12  4  6  2  0 0  4 7 0 
 21  4  2  4  2 35 0  9 7 0 
 24 12  4  6  2  0 0  3 3 0 
@062 4 5 
 31  0  0  0  0 22 0  2 7 0 
 18 10  0  6  1  0 0  8 7 0 
 31  0  0  0  0 23 0  4 3 0 
 18 10  0  6  1  0 0  4 3 0
@063 4 6 
 27  4  0  6 15 35 1  3 3 0 
 31  7  0  7 15  0 2  1 4 0 
 31  7  0  4 14 41 1 14 7 0 
 31  8  0  7 15  0 0  4 7 0
@065 4 7 
 31  0  0  0 15 29 0  8 7 0 
 31  0  0  8 15  0 0  4 7 0 
 31  0  0  0 15 28 0  4 3 0 
 31  0  0  8 15  0 0  2 3 0 
@067 6 6 
 18  0  0  9  0 35 0  6 3 0 
 18  2  1  9  3  0 0  2 3 0 
 18  2  1  9  3  0 0  3 0 0 
 18  2  1  9  3  0 0  1 7 0 
@068 2 7 
 14  6  2  6  1 25 2  2 4 0 
 17  8  2  9  1 31 1  6 5 0 
 20  7  1  6  2 42 0  2 3 0 
 17  4  1  8  2  0 0  4 2 0
@069 4 0 
 31  8  6  9  1 25 0  2 7 0 
 8  10  8  9  1  0 1  8 7 0 
 31  8  6  9  2 22 0  2 3 0 
 31 16  8  9  2  0 0  2 3 0 
@071 4 7 
 31 11  6  8  6  0 0 15 0 0 
 31 11  6 15  6  0 0  0 0 0 
 0  0   0  0  0  0 0  0 0 0 
 0  0   0  0  0  0 0  0 0 0
@072 0 7 
 31 17  8  7  3 15 1  8 0 0 
 31 17  8  7  3 30 1  3 0 0 
 31 14  0  7  1 30 1  1 3 0 
 31 14  8  8  2  0 1  2 4 0 
@074 0 4 
 31  7  7  9  2 28 3  6 6 0 
 31  6  6  9  1 58 3  5 6 0 
 31  9  6  9  1 22 2  0 6 0 
 31  6  8  9 15  0 2  1 6 0 
@075 0 7 
 31 18  0  6  2 36 0 10 3 0 
 31 14  4  6  2 45 0  0 3 0 
 31 10  4  6  2 18 1  0 3 0 
 31 10  3  6  2  0 1  0 3 0
@076 4 7 
 31 21 12  4  6 10 1 15 7 0 
 31 16  8  7  3  0 1  2 7 0 
 31 21 12  4  6  5 1 15 3 0 
 31 16  8  7  3  0 1  2 3 0
@077 2 6 
 31  5  2  1  1 35 3  1 3 0
 25  5  2  1  1 50 2 13 0 0
 31  5  2  1  1 38 3  3 0 0
 22  7  2  5  4  0 2  1 7 0
@079 4 7 
 15  0  0  2  0 30 3  2 3 0
 13  2  0  7  3  0 0  4 3 0
 15  0  0  2  0 31 3  2 7 0
 12  2  0  7  3  0 0  4 7 0 
@079 4 7 
 15  0  0  5  0 30 3  2 3 0
 13  2  2  4 13  0 0  4 3 0
 15  0  0  3  0 31 3  2 7 0
 12  2  6  5 13  0 0  4 7 0
@080 2 7 
 28  7  0  3  1 27 1  2 4 0 
 19  9  0  2  3 24 1 10 4 0 
 28  7  0  3  1 51 1  2 3 0 
 13  4  0  7  0  0 1  2 4 0 
@091 4 7 
 31 20 10  5  4 10 0  1 3 0 
 31 16  8  7  1  0 0  2 3 0 
 21 20 10  5  3  0 0  1 7 0 
 31 16  8  7  1  0 0  2 7 0 
@094 2 7 
 31 14  7  5  6 25 1  6 7 0 
 31 16  7  5  6 22 1 12 3 0
 31 15  7  5  6 35 1  2 7 0
 31 15  8  7  1  0 1  2 3 0
@096 2 7 
 31 16  5  5  5 26 1  6 7 0 
 31 14  5  5  5 27 1 12 3 0
 31 15  5  5  5 40 1  2 7 0
 31 15  6  7  1  0 1  2 3 0 
@097 6 4 
 14  7  5  6  1 40 0  8 3 0 
 16  8  5  7  1  0 0  4 3 0 
 16  8  5  7  1  0 0  8 7 0 
 16  8  5  7  1  0 0  4 7 0
@098 4 4 
 31  0  0  0  0 35 0  4 7 0
 21 16  0  8  1  0 0  2 7 0
 31  0  0  0  0 30 0  8 3 0 
 21 16  0  8  1  0 0  4 3 0 
@099 5 7 
 31  0  0  0  0 28 0  4 0 0 
 31 14  3 15  3  0 0  2 0 0 
 31 14  3 15  3  0 0  4 0 0 
 31 14  3 15  3  0 0  4 0 0 
@099 5 7 
 31  0  0  0  0 29 0  1 0 0 
 31 14  3 15  3  0 0  1 0 0 
 31 14  3 15  3  0 0  1 0 0 
 31 14  3 15  3  0 0  1 0 0 
@099 5 7 
 31  0  0  0  0 29 0  6 0 0 
 31 14  3 15  3  0 0  3 4 0 
 31 14  3 15  3  0 0  2 0 0 
 31 14  3 15  3  0 0  5 4 0 
@099 5 7 
 31 10  8 10  0 28 0  2 1 0 
 31 14 10 15  3  0 0  8 4 0 
 31 14  8 15  3  0 0  3 1 0 
 31 16 15 15  3  0 0  4 4 0 
@100 4 0 
 31  0  0  0  0 22 0  8 3 0 
 31 10  0  7  1  0 0  8 3 0 
 31  0  0  0  0 22 0  8 7 0 
 14 10  0  7  1  0 0  8 7 0 
@101 4 7 
 28  0  8  0  3 32 2 12 3 0 
 26 10  7  6  2  0 1  4 3 0 
 28  0  8  0  3 30 2 12 7 0 
 26 10  7  6  2  0 1  4 7 0 
@101 4 7 
 28  0  8  0  3 35 2 12 3 0 
 26 10  7  6  2  0 1  4 3 0 
 28  0  8  0  3 33 2 12 7 0 
 26 10  7  6  2  0 1  4 7 0 
@121 4 7 
 20  9 18  7  4  1 2  4 7 0 
 31 16 16  8  1  0 2  4 3 0 
 31 20 31  8 15  0 2  4 3 0 
 31 12 18  8  1  0 2  4 7 0 
@122 0 7 
 20  1  9  8  4  1 3  8 3 0 
 24  1  9  8  4  1 3  8 3 0 
 28  1  9  8  4  1 3  8 3 0 
 28 18 17 15  2  0 3  8 7 0 
@123 0 7 
 20  1  0  8  4  1 3  8 3 0 
 24  1  0  8  4  1 3  8 3 0 
 28  1  0  8  4  1 3  8 3 0 
 28 18  0 15  2  0 3  8 7 0
@123 0 7 
 20  1  9  8  4  1 3  8 3 0 
 24  1  9  8  4  1 3  8 3 0 
 28  1  9  8  4  1 3  8 3 0 
 28 18 11 15  2  0 3  8 7 0 
@124 4 7 
 31  0  0  0  0 12 0 15 3 0 
 31 18 12  8  1  0 0  8 7 0 
 31  0  0  0  0  3 0 12 7 0 
 31 13 10  8  1  0 0  8 7 0
@150 4 7 
 31  0  0  0  0  0 0  7 7 0 
 31 19 17  8 14  0 0  0 3 0 
 31  0 25 15  0  0 0 15 3 0 
 31  0 20 15  0  0 0  4 7 0 
@160 5 5 
 25  6  3  6  3  9 0  0 0 0 
 25  6  3  6  4  0 0  1 0 0 
 25  6  3  6  4  0 0  1 0 0 
 25  6  3  6  4  0 0  1 0 0 
@164 4 5 
 27  6 11  4 10 35 0 12 7 0 
 30  7  1  6 15  0 0  4 0 0 
 27  6 11  4 10 35 0 12 0 0 
 30  7  1  6 15  0 0  4 3 0 
@166 2 5 
 31  0  0  0  0 30 0  8 3 0 
 31  0  0  0  0 25 0  6 2 0 
 31  0  0  0  0 25 0  2 5 0 
 18  0  0  7  0  0 0  8 7 0 
@169 4 7 
 31 18 12  4 12 40 0  8 7 0 
 31 14  9  8  7  0 0  4 7 0 
 31 18 12  4 12 40 0  8 3 0 
 31 14  9  8  7  0 0  4 3 0 
@181 4 7 
 31  0  0  0  0 27 0  8 7 0 
 31 16  0  8  2  0 0  4 7 0 
 31  0  0  0  0 30 0  2 3 0 
 31 16  0  8  2  0 0  4 3 0 
@181 4 7 
 31  0  0  0  0 27 0  8 7 0 
 31 16  0  8  2  0 0  4 7 0 
 31  0  0  0  0 30 0  8 3 0 
 31 16  0  8  2  0 0  4 3 0
@182 2 7 
 14 14  0  6  1 23 2  1 0 0
 14 14  0  8 15 40 2  7 0 0
 15 14  0  6  1 38 2  1 0 0
 19  3  0  8  0  0 1  1 0 0 
@185 2 7 
 31  5  2  1  1 40 3  1 7 0
 31  5  2  1  1 40 3 12 0 0
 31  5  2  1  1 40 3  3 0 0
 31  7  2  5  2  0 2  1 3 0 
@192 4 0 
 31  0  0  0  0 22 0  8 3 0 
 31  0  0  7  0  0 0  8 3 0 
 31  0  0  0  0 22 0  8 7 0 
 31  0  0  7  0  0 0  8 7 0 
@198 5 7 
 18  0  0  5  0 34 0  4 7 0 
 24 10  4  6  1  0 0  2 7 0 
 24 10  4  6  1  0 0  4 3 0 
 24 10  4  6  1  0 0  2 7 0 
@199 4 7 
 31 15  8  4  2 30 0 12 7 0 
 31 15  8  6  1  0 0  4 0 0 
 31 15  8  4  2 30 0 12 0 0 
 31 15  8  6  1  0 0  4 3 0 
@200 6 7 
 18 16 14  7  4 37 0 15 0 0 
 31 16  6  8  0  0 0  2 0 0 
 13 12  6  8  3  0 0  4 3 0 
 13 12  6  8  3  0 0  4 7 0
@202 5 7 
 13 14  0  3  1 23 2  4 0 0 
 19  3  0 10  0  0 1  8 0 0 
 19  3  0 10  0  0 1  4 0 0 
 19  3  0 10  0  0 1  2 0 0
@210 4 0 
 31  2  0  4 15 29 0  0 7 0 
 6   4  0  5 15  0 0 13 7 0 
 31  2  0  4 15 29 0  0 3 0 
 6   4  0  5 15  0 0 12 3 0 
@220 5 3 
 31 23  0 15 15  0 0 12 0 0 
 31 21  0 15 15  0 0  4 0 0 
 31 21  0 15 15  0 0  4 0 0 
 31 21  0 15 15  0 0  4 0 0 
@222 6 7 
 31 21  0  7  3 20 0 12 0 0 
 31 18 13  9  2  5 0  4 0 0 
 12  0  0  9  0  0 0  4 3 0 
 12  0  0  9  0  0 0  2 7 0 
@223 0 7 
 20  1  0  8  4  1 3  8 3 0 
 24  1  0  8  4  1 3  8 3 0 
 28  1  0  8  4  1 3  8 3 0 
 28 18  0 15  2  0 3  8 7 0 
@223 0 7 
 20  1  9  8  4  1 3  8 3 0 
 24  1  9  8  4  1 3  8 3 0 
 28  1  9  8  4  1 3  8 3 0 
 28 18 11 15  2  0 3  8 7 0 
@223 4 7 
 31  0  0  4  0  0 0 15 0 0 
 31 21 15  6  1  0 0  0 0 0 
 31 23  0  8 13  0 0  4 0 0 
 31 15  0  8 15  0 0  4 0 0 
@229 4 7 
 31  0  0  4  0  0 0 15 7 0 
 31 15 20 15  1  0 0  0 7 0 
 31 21  0  6 15  0 0  1 3 0 
 31 15  0  6 15  0 0  2 3 0 
@230 4 7 
 31  0  0  4  0  0 0 15 0 0 
 31 31 19  6  2  0 0  0 0 0 
 31 22  0  8 15  0 0  2 0 0 
 31 13  0  8 15  0 0  4 0 0 
@234 5 3 
 31 21  0  8 15  0 0  1 0 0 
 31 15  0  8 15  0 0  2 0 0 
 31 15  0  8 15  0 0  2 0 0 
 31 15  0  8 15  0 0  2 0 0 
@235 5 3 
 31 21  0  6 15  0 0  1 0 0 
 31 15  0  6 15  0 0  2 0 0 
 31 15  0  6 15  0 0  2 0 0 
 31 15  0  6 15  0 0  2 0 0
@236 3 7 
 31  0  0  0  0 13 0 15 0 0
 31 19  4  0  3 25 0 15 0 0
 31  0  0  0  0  9 0 12 0 0
 31 21 16  8  3  0 0  2 0 0 
@237 3 7 
 31  0  0  0  0 13 0 15 0 0 
 31 19  4  0  3 25 0 15 0 0 
 31  0  0  0  0  9 0 12 0 0 
 31 21 10  8  3  0 0  2 0 0 
@241 4 7 
 31  0  0  0  0 13 0 15 3 0 
 31 21 16  8  3  0 0  8 7 0 
 31  0  0  0  0  9 0 12 7 0 
 31 21 16  8  3  0 0  8 7 0
@242 4 7 
 31  0  0  0  0 13 0 15 3 0 
 31 21 10  8  3  0 0  8 7 0 
 31  0  0  0  0  9 0 12 7 0 
 31 21 10  8  3  0 0  8 7 0 
@243 4 7 
 31  0  0  4  0  0 0 15 0 0 
 31 14 18 15 15  0 0  0 0 0 
 31 21  0  6 15  0 0  1 0 0 
 31 15  0  6 15  0 0  2 0 0 
@243 4 7 
 31  4  0  4  0  0 0 15 0 0 
 31  8 18 15 15  0 0  0 0 0 
 31 10  0  6 15  0 0  1 0 0 
 31  8  0  6 15  0 0  2 0 0 
@250 5 7 
 31  2  6  8  6 29 0  2 0 0 
 31  2  6  8  6  0 0  2 4 0 
 31  0  6  8  6  0 0  2 4 0 
 31  6  6  8  6  0 0  1 4 0 
@250 5 7 
 31  2  6  8  6 29 0  4 0 0 
 31  2  6  8  6  0 0  4 4 0 
 31  0  6  8  6  0 0  4 4 0 
 31  6  6  8  6  0 0  2 4 0 
@250 5 7 
 31  2  6  8  6 30 0  4 2 0 
 31  2  6  8  6  0 0  4 2 0 
 31  0  6  8  6  0 0  4 1 0 
 31  6  6  8  6  0 0  2 2 0 
@250 5 7 
 31  2  6  8  6 30 0  4 6 0 
 31  2  6  8  6  0 0  6 2 0 
 31  3  6  8  6  0 0  8 0 0 
 31  6  6  8  6  0 0  6 4 0 
@250 5 7 
 31  3  0 11  1 32 0  8 4 0 
 31  0  0 11  1  2 0  4 4 0 
 31  0  1 11  1  2 0  2 4 0 
 31  6  3 11  4  2 0  4 4 0 
@250 5 7 
 31  3  4 15  0 29 0  4 1 0 
 21  1  4 15  0  0 0  8 1 0
 31  6  4 15  0  0 0  2 1 0 
 21  1  4 15  0  0 0  4 0 0 
@251 5 7 
 31  0  0  0  0 28 0  8 0 0 
 31 14  3 15  3  0 0  2 0 0 
 31 14  3 15  3  0 0  6 0 0 
 31 14  3 15  3  0 0  6 0 0 
@251 7 0 
 31  0  0 15  0  0 0  8 0 0 
 31  0  0 15  0  0 0  4 0 0 
 31  0  0 15  0  0 0  2 0 0 
 31  0  0 15  0  0 0  1 0 0 
@252 7 6 
 31  0  0 15  0 14 0  8 0 0 
 31  0  0 15  0  2 0  4 0 0 
 31  0  0 15  0  1 0  2 0 0 
 31  0  0 15  0  0 0  1 0 0 
 
#Title		Test
#Composer	Drell
#Arranger	Drell
#Tempo		30
#Option		/v/c
#Filename	.M2