#Title        The Far Side of the Moon
#Composer     ZUN
#Arranger     Jonath
#Option       /v/c
#DT2Flag      on
#Filename     .M2
#Tempo        133

@011 3 7 31 4 1 2 3 32 0  6 7 0 0 31  0 0  2 15 25 2 2 3 0 0 31 15 0  2 5  0 2  0 7 0 0 31  0 0  8  2 0 0 2 3 0 0   ; GUITAR
@012 4 7 21 4 2 4 2 40 0 12 3 0 0 24 12 4  6  2  0 0 4 7 0 1 21  4 2  4 2 35 0  6 7 0 0 24 12 4  6  2 0 0 2 3 0 1   ; PIANO
@023 4 7 31 0 0 2 0 30 3  4 3 0 0 31  2 0  7  3  0 0 4 3 0 0 31  0 0  2 0 31 3  2 7 0 0 31  2 0  7  3 0 0 4 7 0 0   ; TRUMPET
@030 4 6 30 1 0 1 1 24 3  4 3 0 0 13  2 0  6  0  0 1 8 3 0 0 30  1 0  1 1 24 3  4 7 0 0 13  2 0  6  0 0 1 8 7 0 0   ; LEAD
@068 2 7 14 6 2 6 1 25 2  2 4 0 0 17  8 2  9  1 31 1 6 5 0 0 20  7 1  6 2 42 0  2 3 0 0 17  4 1  8  2 0 0 4 2 0 0   ; VIOLIN
@074 0 4 31 7 7 9 2 28 3  6 6 0 0 31  6 6  9  1 58 3 5 6 0 0 31  9 6  9 1 22 2  0 6 0 0 31  6 8  9 15 0 2 1 6 0 0   ; BASS
@099 5 7 31 0 0 0 0 29 0  1 0 0 0 31 14 3 15  3  0 0 1 0 0 0 31 14 3 15 3  0 0  1 0 0 0 31 14 3 15  3 0 0 1 0 0 0   ; SYNTH 
@101 4 7 28 0 8 0 3 32 2 12 3 0 0 26 10 7  6  2  0 1 4 3 0 0 28  0 8  0 3 30 2 12 7 0 0 26 10 7  6  2 0 1 4 7 0 0   ; PIANO
@181 4 7 31 0 0 0 0 27 0  8 7 0 0 31 16 0  8  2  0 0 4 7 0 0 31  0 0  0 0 30 0  8 3 0 0 31 16 0  8  2 0 0 4 3 0 0   ; B PIANO
@250 5 7 31 2 6 8 6 29 0  4 0 0 0 31  2 6  8  6  0 0 4 4 0 0 31  0 6  8 6  0 0  4 4 0 0 31  6 6  8  6 0 0 2 4 0 0   ; LEAD 2
@251 5 7 31 0 0 0 0 28 0  8 0 0 0 31 14 3 15  3  0 0 2 0 0 0 31 14 3 15 3  0 0  6 0 0 0 31 14 3 15  3 0 0 6 0 0 0   ; ORGAN

; INTRO LEAD
!A1 d+4 d4 c4 < a+4 [f4 g4 a+4]2 f4 g4
!A2 d+1
!A3 c1
!A4 r2 d4 d+4
!A5 c2 < a+4 > c4 <
!A6 g2 f4 g4
!A7 c4 d+4 r4 d+2

; INTRO BASS
!B1 c4 g4 > c4 d+4 g4 d+4 c4 < g4
!B2 < g+4 > d+4 g+4 > c4 d+4 c4 < g+4 d+4

; INTRO STRINGS 
!C1 g1&1&1&1
!C2 g+1&1&1&1

!D1 c1&1&1&1
!D2 d+1&1&1&1

!E1 d2
!E2 d+1&1&1&1

A t133
A @101 o5 v10
B @250 o3 v7
CD @068 o3 v10
E @068 o4 v10

; INTRODUCTION

A !A1 !A2 > !A1 > !A3 <
A !A1 !A2 > !A1 > !A3 <
;A !A2 !A4 !A5 !A6 !A7

B [!B1]2 [!B2]2 [!B1]2 [!B2]2

C [!C1 !C2]2
D !D1 [!D2]3
E [r1]7 r2 !E1 [!E2]2

I [r1]16
;I [r1]21 r4