#Title        The Wheelchair's Future in Space
#Composer     ZUN
#Arranger     Jonath
#Option       /v/c
#DT2Flag      on
#Filename     .M2
#Tempo        80

@011 3 7 31 4 1 2 3 32 0  6 7 0 0 31  0 0  2 15 25 2 2 3 0 0 31 15 0  2 5  0 2  0 7 0 0 31  0 0  8  2 0 0 2 3 0 0   ; GUITAR
@012 4 7 21 4 2 4 2 40 0 12 3 0 0 24 12 4  6  2  0 0 4 7 0 1 21  4 2  4 2 35 0  6 7 0 0 24 12 4  6  2 0 0 2 3 0 1   ; PIANO
@023 4 7 31 0 0 2 0 30 3  4 3 0 0 31  2 0  7  3  0 0 4 3 0 0 31  0 0  2 0 31 3  2 7 0 0 31  2 0  7  3 0 0 4 7 0 0   ; TRUMPET
@030 4 6 30 1 0 1 1 24 3  4 3 0 0 13  2 0  6  0  0 1 8 3 0 0 30  1 0  1 1 24 3  4 7 0 0 13  2 0  6  0 0 1 8 7 0 0   ; LEAD
@068 2 7 14 6 2 6 1 25 2  2 4 0 0 17  8 2  9  1 31 1 6 5 0 0 20  7 1  6 2 42 0  2 3 0 0 17  4 1  8  2 0 0 4 2 0 0   ; VIOLIN
@074 0 4 31 7 7 9 2 28 3  6 6 0 0 31  6 6  9  1 58 3 5 6 0 0 31  9 6  9 1 22 2  0 6 0 0 31  6 8  9 15 0 2 1 6 0 0   ; BASS
@099 5 7 31 0 0 0 0 29 0  1 0 0 0 31 14 3 15  3  0 0 1 0 0 0 31 14 3 15 3  0 0  1 0 0 0 31 14 3 15  3 0 0 1 0 0 0   ; SYNTH 
@101 4 7 28 0 8 0 3 32 2 12 3 0 0 26 10 7  6  2  0 1 4 3 0 0 28  0 8  0 3 30 2 12 7 0 0 26 10 7  6  2 0 1 4 7 0 0   ; PIANO
@181 4 7 31 0 0 0 0 27 0  8 7 0 0 31 16 0  8  2  0 0 4 7 0 0 31  0 0  0 0 30 0  8 3 0 0 31 16 0  8  2 0 0 4 3 0 0   ; B PIANO
@250 5 7 31 2 6 8 6 29 0  4 0 0 0 31  2 6  8  6  0 0 4 4 0 0 31  0 6  8 6  0 0  4 4 0 0 31  6 6  8  6 0 0 2 4 0 0   ; LEAD 2
@251 5 7 31 0 0 0 0 28 0  8 0 0 0 31 14 3 15  3  0 0 2 0 0 0 31 14 3 15 3  0 0  6 0 0 0 31 14 3 15  3 0 0 6 0 0 0   ; ORGAN

!A1 g+4 > d+4
!A2 e1. r8
!A3 e8 f+8
!A4 g+1. r8

!B1 c+4 f+4
!B2 g+1. r8 >
!B3 c+8 d+8
!B4 e1. r8

!C1 c+8 < g+8 f+8 f8 c+8 f8 f+8 g+8 >
!C2 c+8 < g+8 f+8 e8 c+8 d+8 e8 g+8 >
!C3 c+8 e8 c+8 < a8 g+8 > c+8 d+8 e8
!C4 g+8 e8 c+8 < a8 g+8 > c+8 d+8 e8
!C5 c+8 < g+8 e8 c+8 < b8 > e8 f+8 g+8 >
!C6 f+8 e8 c+8 < g+8 e8 > c+8 e8 g+8
!C7 > c+8 < g+8 f+8 e8 c+8 d+8 e8 g+8
!C8 a1 > c+1 < g+1 a1 g+1 g+1
!C9 a+1&1
!C10 a1

A t80
A o3 @250
B o4 @250
AB [r1]8 r2
A !A1 !A2 !A3 !A4
B !B1 !B2 !B3 !B4

;
C o4 @101
C [!C1]8
C [!C2]2
C !C3 !C4
;C [!C5]2 <  [!C6]2 [!C7]2
;C !C3 !C4
;C [!C5]2 <  [!C6]2 [!C7]2
;C !C3 !C4
;C [!C5]2 <  [!C6]2

;C o3
;C !C8 !C9 !C8 !C10

I [r1]12